icons/Map/flight-land-fill.svg

<svg viewBox="0 0 24 24" xmlns="http://www.w3.org/2000/svg"><path d="M20.949 14.8881C20.7346 15.6883 19.9121 16.1632 19.1119 15.9488L3.44528 11.751C3.00205 11.6322 2.69653 11.227 2.70424 10.7682L2.79514 5.36509L4.24403 5.75332L5.15891 9.10429L10.2542 10.4696L9.88479 2.08838L11.8166 2.60602L14.6269 11.6412L19.8883 13.051C20.6885 13.2654 21.1634 14.0879 20.949 14.8881ZM4.00008 18.9999H20.0001V20.9999H4.00008V18.9999Z"/></svg>

<svg xmlns="http://www.w3.org/2000/svg" viewBox="0 0 24 24">
    <g>
        <path fill="none" d="M0 0h24v24H0z"/>
        <path d="M10.254 10.47l-.37-8.382 1.933.518 2.81 9.035 5.261 1.41a1.5 1.5 0 1 1-.776 2.898L4.14 11.937l.776-2.898.242.065.914 3.35-2.627-.703a1 1 0 0 1-.74-.983l.09-5.403 1.449.388.914 3.351 5.096 1.366zM4 19h16v2H4v-2z"/>
    </g>
</svg>
